X:1
T:Sonatina
T:Sonatina
T:Op. 55, No. 3
T:Friedrich Kuhlau
T:Public Domain (PianoXML typeset)
T:Public Domain (PianoXML typeset)
T:Public Domain (PianoXML typeset)
T:Public Domain (PianoXML typeset)
C:Friedrich Kuhlau
Z:Public Domain (PianoXML typeset)
%%score { 1 | ( 2 3 ) }
L:1/8
Q:1/4=144
M:4/4
K:C
V:1 treble nm="Piano" snm="Pno."
V:2 bass 
V:3 bass 
V:1
!p!"^Allegro con spirito" .!1!!5![Ec].[Fd].[Ge] |"_dolce" !>![Af]3 .[Ge] !tenuto![Fd]3 .!4![^F^d] | %2
 !>![Ge]3 .[=F=d] !tenuto![Ec]3 .!5!c | %3
 (!4!c/B/A/G/!<(! !2!^F/!1!G/A/B/ c/d/e/=f/ .g)!<)!!mf! !2!!5![Ag] | %4
 .!1!!5![Bg].[cg].[Bg].[cg] .[Bg]!p! (!1!G/A/ B/c/d/e/ | %5
 !>![df]3) .[ce] !tenuto!!1!!2![Bd]3 .[Bd] | !>![eg]3!<(! .[df] !tenuto![^ce]3 .[ce]!<)! | %7
!mf! .!1!!4![df](!>!a/g/ f/e/!1!d/!2!c/ .B)(!>!b/a/ g/f/!1!e/!3!d/ | %8
 .c).!1!!3![GB].[Gc].[GB] !tenuto![Gc]2 z2 | %9
!f! (!5!c'!>(!b/a/ g/!1!f/!3!e/d/ !1!c/!4!B/A/G/ !1!F/!3!E/D/C/!>)! | .B,).B, (D/C/B,/C/ .D2) z2 | %11
!f!!>(! (!5!d'c'/b/ a/!1!g/!3!f/e/ !1!d/!4!c/B/A/ !1!G/!3!F/E/D/!>)! | %12
 .C).C (E/D/C/D/ .E2) z!p! .e | .e.e (!tenuto!!1!e^f/^g/ .!4!a) (!>!!3!c'2 a | %14
 .b) (!>!e'2 b c'/d'/c'/b/ .a)(!tenuto!!4!c'/b/ | a/!1!g/^f/e/ !1!d/e/=f/^f/ .g) (!>!b2 g | %16
 .a) (!>!d'2 a b/c'/b/a/ .g)b/a/ |!f! !1!g/!3!^f/e/!1!d/ !2!^c/d/e/d/ =c/!1!B/!4!A/G/ ^F/G/A/G/ | %18
 (!2!^F/!1!E/!2!^D/!1!E/ F/"_cresc."^G/!1!A/B/ c/B/!1!A/!2!G/ !3!A/!1!B/c/d/ | %19
 !4!e/d/c/!1!B/ !4!c/B/A/!1!G/ !2!^F/!1!G/A/B/ !1!c/d/e/^f/ | %20
 .g2)!ff! .[Bdg]2 .[Bdg]2!p! .!1!!5![B,G].[CA] | !tenuto![DB]4- [DB].!1!!5![B,G].[CA].[DB] | %22
 !tenuto![Ec]4-"_cresc." [Ec].[CA].[DB].[Ec] | !>![Fd]4- [Fd].[DB].[Ec].[Fd] | [Ge]4- .[Ge] :: %25
!p! .!1!!5![Ec].[Fd].[Ge] |"_dolce" !>![Af]3 .[Ge] !tenuto![Fd]3 !4![^F^d] | %27
 !>![Ge]4- .[Ge].[^Ge].[Ae].[^Ae] | !>!!tenuto![Be]3 .[Be] !tenuto![^d^f]3 .[df] | %29
 !>![eg]4- .[eg].[Bg].[cg].[^cg] |"_poco a poco" !>![dg]3 .[dg]"_cresc." !tenuto![^fa]3 .[fa] | %31
 !>![gb]4- .[gb].[gb].[ac'].[^a^c'] | !>![bd']4- .[bd'].[bd'].[c'_e'].[^c'=e'] | %33
 !>![d'f']4- .[d'f'].[c'e'].[bd'].[ac'] | .[gb]"_dim." z .[fa] z .[eg] z .[^d^f] z | %35
!p! !tenuto![=d=f]2 z2 !tenuto![^ce]2 z2 | !tenuto![df]2 z2 !tenuto![Bd]2 z2 | %37
!f!!>(! (c'b/a/ g/!1!f/!3!e/d/ !1!c/!4!B/A/G/ !1!F/!3!E/D/C/!>)! |!p! .B,).B, (D/C/B,/C/ .D2) z2 | %39
!f!!>(! (d'c'/b/ a/!1!g/!3!f/e/ !1!d/!4!c/B/A/ !1!G/!3!F/E/D/!>)! | .C).C (E/D/C/D/ .E2) z!p! .e | %41
 .e.e (!tenuto!!1!e^f/^g/ .!4!a) (!>!!3!c'2 a | .b) (!>!e'2 !2!b c'/d'/c'/b/ .a)(!>!!5!c' | %43
 .c).c (!tenuto!!1!cd/e/ .!4!f) (!>!!3!a2 f | .g) (!>!c'2 !2!g a/_b/a/g/ .f) z | %45
 z"_cresc." (!>!d'2 a b/c'/b/a/ .g) z | z (!>!g'2 d' e'/f'/e'/d'/ .c')(!>!e'/d'/ | %47
!f! !1!c'/!3!b/a/!1!g/ !2!^f/g/a/g/ =f/!1!e/d/c/ B/c/d/c/ | %48
 !2!B/!1!A/!2!^G/!1!A/"_cresc." B/^c/!1!d/e/ !>!f/e/!1!d/!2!c/ !3!d/!1!e/f/=g/ | %49
 !>!a/g/f/!1!e/ !>!f/e/d/!1!c/ !2!B/!1!c/d/e/ !1!f/g/a/b/ | %50
!ff! .c'2) .[gd']2 .[ge']2 z (!>!g'/f'/ | %51
!f! e'/d'/!1!c'/!2!b/ !1!c'/d'/e'/d'/ !1!c'/!3!b/a/!1!g/ !2!^f/g/a/g/ | %52
 f/e/!3!d/!2!^c/ !1!d/e/f/e/ !1!d/!4!e/=c/d/ !1!B/!4!c/A/B/ | G) z z2 z .[ce].[df].[Bd] | %54
 (.c!1!e/!2!g/ !4!c'/!5!e'/!4!c'/!2!g/ !1!e/!5!c'/!3!g/!2!e/ !1!c/!5!g/!4!e/!2!c/ | %55
 .G) z z2 z .!2!!4![ce].[df].[Bd] | %56
 .c (!1!e/!2!g/ !4!c'/!5!e'/!4!c'/!2!g/ !1!e/!5!c'/g/!2!e/ !1!c/!5!g/!4!e/!2!c/ | %57
 .G) z z2 z .!2!!4![ce].[df].[Bd] |1 .c2 .[EGc]2 .[EGc] :|2 c2 [EGc]2 [EGc]2 z2 |] %60
[M:2/4][Q:1/4=116]"^Allegretto grazioso"!p! (!2!^f/g/ | !>!.a) .g.=f.e | (!>!^c2 .d) (!2!e/f/ | %63
 .g).f.e.d | (!tenuto!d/c/B/c/ .e) (!2!c'/d'/ | !>!.e').d'.c'.b |{ab} .c'.b.a.!1!g | %67
!>(! (!2!^f/g/a/f/ d/e/f/d/!>)! |!p!!<(! .g) (!2!^f/g/ f/g/f/g/ | .a)!<)!.g.f.e | %70
 (!>!^c2 .d) (!2!e/f/ | !>!.g).f.e.d | (!3!d/c/B/c/!mf! .e) (!3!c'/d'/ | %73
!>(! !>!e'/d'/c'/b/ a/g/f/e/!>)! | !1!d/^g/a/=g/ f/e/!1!d/!2!c/ |!p! .!1!B).[Bg].[Bg].[Bg] | %76
 .!2!c (G/A/!<(! B/c/d/e/!<)! |: !>!.f)!p!(!3!g/f/ .e)(!3!f/e/ | .d)(!3!e/d/ .c)(!3!d/c/ | %79
 .B).B.B.B | (d/c/B/c/ .e) (!4!_b/a/ | .g)(a/g/ .f)(g/f/ | .e)(f/e/ .d)(e/d/ | .^c).c.c.c | %84
 (e/d/^c/d/ .f)!mf! (a'/g'/ | .f') z2 (f'/e'/ | .d') z2"_dim." (d'/c'/ | .b) z2 (b/a/ | %88
 .g) z z!p! (!2!^f/g/ | .a).g.=f.!1!e | (!>!^c2 .d) (!2!e/f/ | !>!.g).f.e.d | %92
 (d/c/B/c/ .e)!mf! (c'/d'/ |!>(! !>!e'/d'/c'/b/ !1!a/!4!g/f/e/!>)! | d/!4!^g/a/=g/ f/e/!1!d/!2!c/ | %95
 .B) .[Bg].[Bg].[Bg] |1 .c!<(! (G/A/ B/c/d/e/)!<)! :|2 .c.e.e.e || (!4!f/e/^d/e/ .a).e | %99
 (!>!c'3 .b) |{/b} .a.^g.a.c' | !tenuto!e3 .e | (f/e/^d/e/ .a).a | .!4!a (!>!g2 f | %104
 .e).e (e/d/c/d/ | !>!e3) .e | (!4!f/e/^d/e/ .!2!a).c' | (!>!e'3"_smorz." .e) | (f/e/^d/e/ .a).c' | %109
 e'4- | e'3 .e |!p! (f/e/^d/e/ .a).e | (!>!c'3 b) |{/b} .a.^g.a.c' | !tenuto!e3 .e | %115
 (f/e/^d/e/ .a).c' | (e'3 c'/a/ | .e).e .b(b/c'/ |!mf! .a)!>(!(a/c'/ b/a/g/f/!>)! | %119
 .e) .[de].[de].[de] | .[ce]!>(! (A/c/ B/A/G/F/!>)! | .E) .[DE].[DE].[DE] | %122
 .[CE] (A,/B,/ C/D/E/^F/ |"_cresc." ^G/A/B/c/ d/e/^f/^g/ | a/e/^f/^g/ a/b/c'/a/) | %125
!f!!>(! e'4-!>)! |!p! (e'3 .e) | (f/e/^d/e/ .a).e | (c'3 b) |{/b} .a.^g.a.c' | !tenuto!e3 .!3!e | %131
 (f/e/^d/e/ .a).c' | (e'3 !4!c'/a/ | .e).e .b(!3!b/c'/ |!mf! .a)!>(!(a/c'/ b/!1!a/!3!g/f/!>)! | %135
 .e).!2!!3![de].[de].[de] | .[ce] (!2!c'/e'/ d'/c'/b/a/ | .g).!2!!3![fg].[fg].[fg] | %138
 .[eg] (e'/g'/ f'/e'/d'/c'/ | b/a/g/f/ !3!e/d/c/B/ |"_dim." !3!c/e/d/c/ B/!3!A/G/^F/ | %141
 !3!G)(!2!G/A/ .B)(!2!B/c/ | .d)(!2!d/e/ .!fermata!f)!p! (!2!^f/g/ | !>!.a).g.f.e | %144
 (!>!^c2 .d) (!2!e/f/ | .g).f.e.!1!d | (d/c/B/c/ .e) (c'/d'/ | .e').d'.c'.b |({ab)} .c'.b.a.g | %149
 (^f/g/a/f/ d/e/f/d/ | .g)!<(! ^f/g/ (f/g/f/g/!<)! | !>!.a).g.f.e | (!>!^c2 .d) (e/f/ | %153
 !>!.g).f.e.!1!d | (!tenuto!d/c/B/c/ .e)!mf! (c'/d'/ |!>(! !>!e'/d'/c'/b/ !1!a/g/f/e/!>)! | %156
 !1!d/^g/a/=g/ f/e/d/c/ |!p! .B).[Bg].[Bg].[Bg] | .c (G/A/!<(! B/c/d/e/!<)! | %159
 .f)!p!(g/f/ .e)(f/e/ | .d)(e/d/ .c)d/c/ | .B.B.B.B | (!4!d/c/B/c/ .e) (_b/a/ | %163
 !>!.g)(!4!a/g/ .f)(g/f/ | .e)(!4!f/e/ .d)(!4!e/d/ | .^c).c.c.c | (!4!e/d/^c/d/ .f) (!4!a'/g'/ | %167
 .f') z z (!4!f'/e'/ | .d') z z (!4!d'/c'/ |"_dim." .b) z z (!4!b/a/ | .g) z z!p! (!2!^f/g/ | %171
 !>!.a).g.f.e | (!>!^c2 .d) (!2!e/f/ | !>!.g).f.e.d | (!3!d/c/B/c/ .e)!mf! (!3!c'/d'/ | %175
!>(! !>!e'/d'/c'/b/ !1!a/!4!g/f/e/!>)! | !1!d/!4!^g/a/=g/ f/e/d/c/ |!p! .B).[Bg].[Bg].[Bg] | %178
 .c(!1!c/e/"_cresc." d/!1!c/B/A/ | .G).[FG].[FG].[FG] | .[EG]!f! (!1!G/A/ B/c/d/e/ | %181
 f/!<(!!2!^c/!1!d/e/ f/!1!g/a/b/!<)! | .=c') z z |] %183
V:2
 z z2 | z .C.C z z .C.C z | z .C.C z z .C.C z | ((!>!!5!!2![G,D]4 !3!!1![CE]3)) .[CE] | %4
 .[G,D].[CE].[G,D].[CE] !tenuto![G,D]2 z2 |[K:treble] z .G.G z z .[FG].[FG] z | %6
 z .[EG].[EG] z z .[A,G].[A,G] z | [DF]2 z2[K:bass] ((!>![G,DF]4 | %8
 .!3!!1![CE])).!5!!2![G,D].[CE].[G,D] !tenuto![CE]2 z2 | (([C,E,G,]8 | %10
 .[D,F,G,]2)) .[C,E,G,]2 .[B,,F,G,]2 z2 | ([B,,F,G,]8 | .[C,E,G,]2) .[B,,F,G,]2 .[C,E,G,]2 z2 | %13
!pp! (!3!CE[B,D]E [A,C]E[A,C](E) |"_legato" [^G,D])E[G,D]E !4![A,C]E[A,C](E | %15
 [A,C])D[A,C]D [G,B,]D[G,B,](D | ([^F,C])D[F,C]D !5![G,B,]D[G,B,].D) | ((!4!!2![B,D]8 | C8)) | %19
 z2 .[D,A,C]2 .[D,A,C]2 .[D,A,C]2 | .[G,B,]2 .G,2 .G,,2 z2 | %21
 z .!5!G,,.!4!B,,.!2!D, !tenuto!G,2 z2 | z .!5!G,,.!3!C,.!2!E, !tenuto!G,2 z2 | %23
 z .!5!G,,.!4!B,,.!2!D, !tenuto!G,2 z2 | z/!f! (C,/!<(!D,/E,/ F,/!1!G,/!3!A,/B,/!<)! .C) :: z z2 | %26
 z .C.C z z .C.C z | z/!<(! (C,/D,/E,/ F,/!1!G,/!3!A,/B,/!<)! .C) z z2 | z .B,,.B,, z z .B,.B, z | %29
 z/!<(! (!4!E,/^F,/G,/ !1!A,/!4!B,/^C/^D/!<)! .E) z z2 | z .=D,.D, z z .D.D z | %31
 z/!<(! (!5!G,/A,/B,/ C/!1!D/!3!E/^F/!<)! .G) z z2 | %32
 z/!<(! (!5!G,/A,/B,/ C/!1!D/!3!E/^F/!<)! .G) z z2 | %33
 z/!<(! (!5!G,/A,/B,/ C/!1!D/!3!E/^F/!<)! .G).G.G.G | .G z .G z .G z .G z | %35
 !tenuto!G2 z2 !tenuto!G2 z2 | !tenuto!G2 z2 !tenuto!G2 z2 | (([C,E,G,]8 | %38
 .[D,F,G,]2)) .[C,E,G,]2 .[B,,F,G,]2 z2 | (([B,,F,G,]8 | .[C,E,G,]2)) .[B,,F,G,]2 .[C,E,G,]2 z2 | %41
 (CE[B,D]E [A,C]E[A,C](E) | .[^G,D])(E[G,D]E [A,C]E[A,C](E) | .[A,C])(C[G,_B,]C [F,A,]C[F,A,](C) | %44
 .[E,_B,])(C[E,B,]C [F,A,]C[F,A,](.C) | !tenuto![^F,C])D[F,C]D [G,B,]D[G,B,](D | %46
[K:treble] (!tenuto![B,F])G[B,F]G [CE]G[CE].G) | (([EG]8 | F8)) | z2 .[G,DF]2 .[G,DF]2 .[G,DF]2 | %50
 .[A,CE]2 .[B,FG]2 .[CEG]2 z2 | (([EG]8 | [FA]4)) z4 | %53
[K:bass] z/!<(! (!5!G,/A,/B,/ C/!1!D/!3!E/^F/!<)! .G).G.G.G | C2 z2 z4 | %55
 z/!<(! (!5!G,/A,/B,/ C/!1!D/!3!E/^F/!<)! .G).G.G.G | C2 z2 z4 | %57
 z/!<(! (!5!G,/A,/B,/ C/!1!D/!3!E/^F/!<)! .G).G.G.G |1 .C2 .C2 .C, :|2 .C2 .C2 .C,2 z2 |] %60
[M:2/4] z | z[K:treble] .[CE].[DF].[EG] | !tenuto![FA]3 z | z[K:bass] .[G,B,F].[G,B,F].[G,B,F] | %64
 !tenuto![CE]2 z2 | z4 |[K:treble]{cd} !>!.e.d.c.B | A z ((!>![DAc]2 | [GB])) z2 z | %69
 z .[CE].[DF].[EG] | !tenuto![FA]3 z | z[K:bass] .[G,B,F].[G,B,F].[G,B,F] | !tenuto![CE]2 z2 | %73
 z .[C,E,].[D,F,].[E,G,] | .[F,A,].[F,A,].[F,A,] z | z .[G,B,F].[G,B,F].[G,B,F] | %76
 !tenuto![CE]2 z2 |: !>!.[G,B,] z .[G,A,C] z | .[G,B,D] z .[G,CE] z | %79
 .[G,DF].[G,DF].[G,DF].[G,DF] | !tenuto![CE]2 z2 | .[A,^C] z .[A,B,D] z | .[A,^CE] z .[A,DF] z | %83
 .[A,EG].[A,EG].[A,EG].[A,EG] | [DF]2 z2 | z .[G,B,DF].[G,B,DF] z | z .[G,B,DF].[G,B,DF] z | %87
 z .[G,B,DF].[G,B,DF] z | z .[G,B,DF].[G,B,DF] z | z[K:treble] .[CE].[DF].[EG] | !tenuto![FA]3 z | %91
 z[K:bass] .[G,B,F].[G,B,F].[G,B,F] | [CE]2 z2 | z .[C,E,].[D,F,].[E,G,] | %94
 .[F,A,].[F,A,].[F,A,] z | z .[B,FA].[B,FA].[B,FA] |1 .[CE]2 z z :|2 [CE]2 z2 || %98
!pp! ([A,C]E[A,C](E) |"_legato" [A,C])E[A,C](E | [A,C])E[A,C](E | [A,C])E[A,C](E | [A,C])E[A,C](E | %103
[K:treble] [B,D])G[B,D](G | C)GF(A | !>![E^GB]4-) | (([GB]2 [Ac]2)) | !>![E^GB]4- | %108
 (([GB]2 ([Ac]2)) | [E^GB]4-) | [EGB]3 z |[K:bass]!pp! ([A,C]E[A,C](E) |"_legato" [A,C])E[A,C]E | %113
 [A,C]E[A,C](E | [A,C])E[^G,D](E | [A,C])E[A,C](E | [A,C].E)[K:treble] ([CE]A) | ([EA]c [E^G]d | %118
 .[Ac]) z z2 | z (^G/A/ B/E/^F/G/ | .A) z z2 |[K:bass] z (^G,/A,/ B,/E,/^F,/G,/ | .A,) z2 z | z4 | %124
 z [A,C][A,C][A,C] | ([E,-A,C]4 | [E,^G,B,]3) z |!pp! ([A,C]E[A,C](E) |"_legato." [A,C])E[A,C]E | %129
 ([A,C]E[A,C](E) | [A,C])E[^G,D]E | ([A,C]E[A,C](E) | [A,C].E)[K:treble] ([CE]A) | ([EA]c [E^G]d | %134
 .[Ac]) z2 z | z (!3!^G/A/ B/E/^F/G/ | .A) z2 z | z (!3!B/c/ d/G/A/B/ | .c) z z2 | %139
[K:bass] ((!>![G,DF]4 | (([G,CE]4)) | .[G,B,D])) z .[G,B,D] z | .[G,B,D] z .!fermata![G,B,D] z | %143
 z[K:treble] .[CE].[DF].[EG] | [FA]3 z | z[K:bass] .[G,B,F].[G,B,F].[G,B,F] | [CE]2 z2 | z4 | %148
[K:treble]{cd} .e.d.c.B | .A z (([DAc]2 | [GB])) z2 z | z .[CE].[DF].[EG] | [FA]3 z | %153
 z[K:bass] .[G,B,F].[G,B,F].[G,B,F] | [CE]2 z2 | z .[C,E,].[D,F,].[E,G,] | %156
 .[F,A,].[F,A,].[F,A,] z | z .[G,DF].[G,DF].[G,DF] | [CE]2 z2 | !>!.[G,B,] z .[G,A,C] z | %160
 .[G,B,D] z .[G,CE] z | .[G,DF].[G,DF].[G,DF].[G,DF] | !tenuto![CE]2 z2 | %163
 .!5!!3![A,^C] z .[A,B,D] z | .[A,^CE] z .[A,DF] z | .[A,EG].[A,EG].[A,EG].[A,EG] | %166
 !tenuto!!3!!1![DF]2 z2 | z .[G,B,DF].[G,B,DF] z | z .[G,B,DF].[G,B,DF] z | %169
 z .[G,B,DF].[G,B,DF] z | z .[G,B,DF].[G,B,DF] z | z[K:treble] .[CE].[DF].[EG] | [FA]3 z | %173
 z[K:bass] .[G,DF].[G,DF].[G,DF] | [CE]2 z z | z .!5!!3![C,E,].[D,F,].[E,G,] | %176
 .!2!!1![F,A,].[F,A,].[F,A,] z | z .[G,DF].[G,DF].[G,DF] | .!3!!1![CE]2 z2 | %179
 z (!3!B,,/C,/ D,/G,,/A,,/B,,/ | .C,) z2 z | z .[G,DF].[G,DF].[G,DF] | .!3!!1![CE] z z |] %183
V:3
 x3 | x8 | x8 | x8 | x8 |[K:treble] x8 | x8 | x4[K:bass] x4 | x8 | x8 | x8 | x8 | x8 | x8 | x8 | %15
 x8 | x8 | x8 | x8 | x8 | x8 | x8 | x8 | x8 | x5 :: x3 | x8 | x8 | x8 | x8 | x8 | x8 | x8 | x8 | %34
 x8 | x8 | x8 | x8 | x8 | x8 | x8 | x8 | x8 | x8 | x8 | x8 |[K:treble] x8 | x8 | x8 | x8 | x8 | %51
 x8 | x8 |[K:bass] x8 | x8 | x8 | x8 | x8 |1 x5 :|2 x8 |][M:2/4] x | x[K:treble] x3 | x4 | %63
 x[K:bass] x3 | x4 | x4 |[K:treble] x4 | x4 | x4 | x4 | x4 | x[K:bass] x3 | x4 | x4 | x4 | x4 | %76
 x4 |: x4 | x4 | x4 | x4 | x4 | x4 | x4 | x4 | x4 | x4 | x4 | x4 | x[K:treble] x3 | x4 | %91
 x[K:bass] x3 | x4 | x4 | x4 | x4 |1 x4 :|2 x4 || x4 | x4 | x4 | x4 | x4 |[K:treble] x4 | x4 | x4 | %106
 E4 | x4 | E4 | x4 | x4 |[K:bass] x4 | x4 | x4 | x4 | x4 | x2[K:treble] x2 | x4 | x4 | x4 | x4 | %121
[K:bass] x4 | x4 | x4 | x4 | x4 | x4 | x4 | x4 | x4 | x4 | x4 | x2[K:treble] x2 | x4 | x4 | x4 | %136
 x4 | x4 | x4 |[K:bass] x4 | x4 | x4 | x4 | x[K:treble] x3 | x4 | x[K:bass] x3 | x4 | x4 | %148
[K:treble] x4 | x4 | x4 | x4 | x4 | x[K:bass] x3 | x4 | x4 | x4 | x4 | x4 | x4 | x4 | x4 | x4 | %163
 x4 | x4 | x4 | x4 | x4 | x4 | x4 | x4 | x[K:treble] x3 | x4 | x[K:bass] x3 | x4 | x4 | x4 | x4 | %178
 x4 | x4 | x4 | x4 | x3 |] %183

